X:1
T:Title
%%score { ( 1 3 ) | ( 2 4 ) }
L:1/8
Q:1/4=100
M:6/8
K:Eb
V:1 treble nm="Grand Piano"
V:3 treble 
V:2 bass 
V:4 bass 
V:1
 B,CD EFG | A3 G2 F | B2 G z2 B, | c3 B2 B | A3 G2 G | F3 G2 [E=A] | [DB]6 | B,CD EFG | A3 G2 F | %9
w: D.~B.~Towner * * * * *|||||||||
 B2 G E3 | c3 [Ad]2 [Ge] | [Ge]2 [EB] [B,EG]2 [=A,E] | [B,EG]3 [B,DG]2 [A,DF] | [G,E]6 | %14
w: |||||
 [DF]3 [EG]2 [EG] | [FA] [DF]2- [DF]2 z | [EG]3 [FA]2 [FA] | [Ac] [GB]2- [GB]2 z | .[Ac]6 | %19
w: |||||
 .[GB]6 | [B,DF]3 [CF=A]2 [EFc] | [DFB]6 | B,CD EFG | A3 G2 F | B2 G E3 | c3 [Ad]2 [Ge] | %26
w: |||||||
 [Ge]2 B G2 E | [EG]3 [DG]2 [DF] | E6 |] %29
w: |||
V:2
 z [A,B,][F,A,B,] [E,G,B,][E,A,E][E,B,E] | [E,CE]3 [E,B,E]2 [E,A,E] | [E,E]2- [E,B,E] [E,G,]2 G, | %3
 [A,E]3 [G,E]2 [G,E] | [F,B,D]3 [E,B,E]2 [E,B,E] | [D,B,]3 [E,B,E]2 [C,F,] | [B,,F,]6 | %7
 z [A,B,][F,A,B,] [E,G,B,][E,A,E][E,B,E] | [E,CE]3 [E,B,E]2 [E,A,E] | [E,E]2- [E,B,E] [G,B,]3 | %10
 [A,E]3 [F,B,]2 [E,B,] | .B,3 z3 | B,,3 B,,2 B,, | E,6 | [B,,B,]3 [B,,B,]2 [B,,B,] | %15
 [B,,B,] [B,,B,]2- [B,,B,]2 z | [E,B,]3 [E,E]2 [E,E] | [E,E] [E,E]2- [E,E]2 z | %18
 [E,E]E,E, E,[E,E][E,E] | [E,E]E,E, E,E,E, | F,3 F,2 F, | B,,6 | %22
 z [A,B,][F,A,B,] [E,G,B,][E,A,E][E,B,E] | [E,CE]3 [E,B,E]2 [E,A,E] | [E,E]2- [E,B,E] [G,B,]3 | %25
 [A,E]3 [F,B,]2 [E,B,] | B,2 [G,E] [E,B,E]2 [C,=A,] | [B,,B,]3 [B,,B,]2 [B,,A,] | [E,G,]6 |] %29
V:3
 x6 | x6 | z3 E3 | x6 | x6 | x6 | x6 | x6 | x6 | x6 | x6 | x6 | x6 | x6 | x6 | x6 | x6 | x6 | %18
 z EE E[GB][_G=A] | z EE E[B,FA][B,EG] | x6 | x6 | x6 | x6 | x6 | x6 | x6 | x6 | x6 |] %29
V:4
 x6 | x6 | .G,3 z3 | x6 | x6 | x6 | x6 | x6 | x6 | .G,3 z3 | x6 | E,2- [E,G,] E,2 C, | x6 | x6 | %14
 x6 | x6 | x6 | x6 | x6 | x6 | x6 | x6 | x6 | x6 | .G,3 z3 | x6 | E,3 z3 | x6 | x6 |] %29

